X: 204
T:In pace in idipsum
N: Derived from Jos1705-In_pace_in_idipsum.krn
C: Josquin des Prez
%%abc-version 2.0
%%abcx-abcm2ps-target-version 5.9.1 (29 Sep 2008)
%%abc-creator hum2abc beta
%%abcx-conversion-date 2019/02/12 16:15:48
%%abc-edited-by Jesse Rodin
%%abc-edited-by Joel Chapman 2011/12/26
%%abcx-initial-encoding-date 2011/12/26/
%%humdrum-veritas 2595361101
%%humdrum-veritas-data 2820720675
%%linebreak <none>
%%barnumbers 0
L: 1/4
M: 2/1
Q: 1/2=120
%%staves [1 2 3 4]
V: 1 clef=treble
V: 2 clef=treble-8
V: 3 clef=treble-8
V: 4 clef=bass
K: C
[V:1] E8 | 
[V:2] z8 | 
[V:3] z8 | 
[V:4] z8 | 
[V:1] G6FE | 
[V:2] z8 | 
[V:3] E8 | 
[V:4] z8 | 
[V:1] D8 | 
[V:2] z8 | 
[V:3] G8 | 
[V:4] z8 | 
[V:1] C6D2 | 
[V:2] z8 | 
[V:3] A8 | 
[V:4] A,,8 | 
[V:1] E8 | 
[V:2] z8 | 
[V:3] G6A2- | 
[V:4] C,8 | 
[V:1] F6ED | 
[V:2] A8 | 
[V:3] AGFEF4 | 
[V:4] D,8 | 
[V:1] E4G4- | 
[V:2] c8 | 
[V:3] G8 | 
[V:4] C,4E,4 | 
[V:1] G4^F4 | 
[V:2] d8 | 
[V:3] A8 | 
[V:4] D,8 | 
[V:1] !fermata!G16 | 
[V:2] !fermata!B16 | 
[V:3] !fermata!G16 | 
[V:4] !fermata!G,,16 | 
[V:1] z8 | 
[V:2] B8 | 
[V:3] z8 | 
[V:4] G,8 | 
[V:1] z8 | 
[V:2] c8 | 
[V:3] z8 | 
[V:4] A,8 | 
[V:1] B8 | 
[V:2] d6cB | 
[V:3] z8 | 
[V:4] G,4G,4- | 
[V:1] c8 | 
[V:2] A2G2A4 | 
[V:3] z8 | 
[V:4] G,2F,E,F,4 | 
[V:1] d6cB | 
[V:2] G8 | 
[V:3] B8 | 
[V:4] z4G,4 | 
[V:1] A4G4 | 
[V:2] z4G4 | 
[V:3] c8 | 
[V:4] F,4E,4 | 
[V:1] F3GA2D2 | 
[V:2] A8 | 
[V:3] d8 | 
[V:4] D,6C,B,, | 
[V:1] E4G4- | 
[V:2] A4d4- | 
[V:3] c4B4 | 
[V:4] A,,4G,,4 | 
[V:1] G2^FEF4 | 
[V:2] d4d4 | 
[V:3] A8 | 
[V:4] D,8 | 
[V:1] !fermata!G16 | 
[V:2] !fermata!B16 | 
[V:3] !fermata!G16 | 
[V:4] !fermata!G,,16 | 
[V:1] z8 | 
[V:2] c8 | 
[V:3] z8 | 
[V:4] z8 | 
[V:1] z4c4- | 
[V:2] G4A4- | 
[V:3] z8 | 
[V:4] z8 | 
[V:1] c4G4 | 
[V:2] A2GFE4 | 
[V:3] z8 | 
[V:4] z8 | 
[V:1] A3GF2E2 | 
[V:2] F3GABc2- | 
[V:3] c8 | 
[V:4] z8 | 
[V:1] D4C4- | 
[V:2] c2B2c4- | 
[V:3] G4A4- | 
[V:4] z4F,4- | 
[V:1] C2F4E2- | 
[V:2] c4c4 | 
[V:3] A4G4 | 
[V:4] F,4C,4 | 
[V:1] E2DCD4 | 
[V:2] A8- | 
[V:3] F8 | 
[V:4] D,8 | 
[V:1] E8- | 
[V:2] A8- | 
[V:3] E8- | 
[V:4] A,,8- | 
[V:1] E8 | 
[V:2] A8 | 
[V:3] E8 | 
[V:4] A,,8 | 
[V:1] D4C2D2- | 
[V:2] A8- | 
[V:3] F4E2F2- | 
[V:4] D,4A,,2D,2- | 
[V:1] D2^CB,C4 | 
[V:2] A8 | 
[V:3] F2EDE4 | 
[V:4] D,4A,,4 | 
[V:1] D8- | 
[V:2] F3GA2_B2- | 
[V:3] D8 | 
[V:4] z4D,4- | 
[V:1] D8 | 
[V:2] BAA4G2 | 
[V:3] z8 | 
[V:4] D,2C,2B,,4 | 
[V:1] z8 | 
[V:2] A4z4 | 
[V:3] A4G2A2- | 
[V:4] A,,B,,C,D,E,2F,2- | 
[V:1] z8 | 
[V:2] z8 | 
[V:3] A2GFG4 | 
[V:4] F,2E,D,E,4 | 
[V:1] A8 | 
[V:2] A3Bc2d2- | 
[V:3] F8 | 
[V:4] F,8 | 
[V:1] G8 | 
[V:2] d2^cB^c4 | 
[V:3] z8 | 
[V:4] E,8 | 
[V:1] F8 | 
[V:2] d8 | 
[V:3] A8- | 
[V:4] D,6C,B,, | 
[V:1] A8- | 
[V:2] c3BAGF2 | 
[V:3] A8 | 
[V:4] A,,3B,,C,2D,2 | 
[V:1] A8 | 
[V:2] E2F3EFG | 
[V:3] A3Bc2d2 | 
[V:4] C,2D,4C,B,, | 
[V:1] A2B4AG | 
[V:2] A2D4d2- | 
[V:3] c2d4cB | 
[V:4] A,,2G,,3A,,B,,C, | 
[V:1] ^F2G4F2 | 
[V:2] d2c2d4- | 
[V:3] A2G2A4 | 
[V:4] D,2E,2D,4 | 
[V:1] G8 |]  
[V:2] d8 |]  
[V:3] G8 |]  
[V:4] G,,8 |]  



